;Generated from Calibration.STL 0ebb8c99bbda11729ff45a66cf818e2e8c5be504
;Generated with Cura_SteamEngine 15.04
M109 T0 S220.0
T0
; Sliced at: Thu 07-01-2016 22:21:30
; Basic settings: Layer height: 0.25 Walls: 0.35 Fill: ?fill_density?

;Layer count: 15
;LAYER:0
M107
G1 F2520 E-2.40000
G1 Z0.800
G0 F1200 X41.675 Y42.573 Z0.300
;TYPE:WALL-OUTER
G1 Z0.300
G1 F2520 E0.00000
G1 F1620 X45.573 Y38.675 E0.24065
G1 X71.325 Y38.675 E1.36482
G1 X71.325 Y68.325 E2.65916
G1 X41.675 Y68.325 E3.95350
G1 X41.675 Y42.573 E5.07768
G0 F1200 X41.950 Y42.654
G0 X47.335 Y47.153
G0 X47.551 Y47.322
G1 F1620 X46.871 Y48.447 E5.13506
G1 X46.332 Y49.644 E5.19237
G1 X45.941 Y50.898 E5.24971
G1 X45.705 Y52.190 E5.30704
G1 X45.625 Y53.500 E5.36434
G1 X45.705 Y54.810 E5.42163
G1 X45.941 Y56.102 E5.47896
G1 X46.332 Y57.356 E5.53631
G1 X46.871 Y58.553 E5.59361
G1 X47.551 Y59.678 E5.65100
G1 X48.360 Y60.711 E5.70828
G1 X49.289 Y61.640 E5.76563
G1 X50.322 Y62.449 E5.82291
G1 X51.447 Y63.129 E5.88029
G1 X52.644 Y63.668 E5.93760
G1 X53.898 Y64.059 E5.99494
G1 X55.190 Y64.295 E6.05227
G1 X56.500 Y64.374 E6.10956
G1 X57.810 Y64.295 E6.16685
G1 X59.102 Y64.059 E6.22419
G1 X60.356 Y63.668 E6.28153
G1 X61.553 Y63.129 E6.33884
G1 X62.678 Y62.449 E6.39622
G1 X63.711 Y61.640 E6.45350
G1 X64.640 Y60.711 E6.51085
G1 X65.449 Y59.678 E6.56813
G1 X66.129 Y58.553 E6.62551
G1 X66.668 Y57.356 E6.68282
G1 X67.059 Y56.102 E6.74016
G1 X67.295 Y54.810 E6.79750
G1 X67.374 Y53.500 E6.85479
G1 X67.295 Y52.190 E6.91208
G1 X67.059 Y50.898 E6.96941
G1 X66.668 Y49.644 E7.02675
G1 X66.129 Y48.447 E7.08406
G1 X65.449 Y47.322 E7.14145
G1 X64.640 Y46.289 E7.19872
G1 X63.711 Y45.360 E7.25608
G1 X62.678 Y44.551 E7.31335
G1 X61.553 Y43.871 E7.37074
G1 X60.356 Y43.332 E7.42805
G1 X59.102 Y42.941 E7.48539
G1 X57.810 Y42.705 E7.54272
G1 X56.500 Y42.625 E7.60001
G1 X55.190 Y42.705 E7.65731
G1 X53.898 Y42.941 E7.71464
G1 X52.644 Y43.332 E7.77198
G1 X51.447 Y43.871 E7.82929
G1 X50.322 Y44.551 E7.88668
G1 X49.289 Y45.360 E7.94395
G1 X48.360 Y46.289 E8.00131
G1 X47.551 Y47.322 E8.05858
G0 F1200 X47.434 Y47.186
;TYPE:SKIN
G1 F1620 X42.371 Y42.123 E8.37115
G0 F1200 X42.618 Y41.876
G1 F1620 X47.651 Y46.909 E8.68187
G0 F1200 X47.869 Y46.631
G1 F1620 X42.866 Y41.628 E8.99073
G0 F1200 X43.113 Y41.381
G1 F1620 X48.086 Y46.354 E9.29775
G0 F1200 X48.314 Y46.087
G1 F1620 X43.361 Y41.133 E9.60356
G0 F1200 X43.608 Y40.886
G1 F1620 X48.561 Y45.839 E9.90934
G0 F1200 X48.809 Y45.592
G1 F1620 X43.856 Y40.638 E10.21514
G0 F1200 X44.103 Y40.391
G1 F1620 X49.056 Y45.344 E10.52092
G0 F1200 X49.319 Y45.112
G1 F1620 X44.351 Y40.143 E10.82766
G0 F1200 X44.598 Y39.896
G1 F1620 X49.597 Y44.894 E11.13625
G0 F1200 X49.875 Y44.677
G1 F1620 X44.846 Y39.648 E11.44672
G0 F1200 X45.093 Y39.401
G1 F1620 X50.152 Y44.460 E11.75904
G0 F1200 X50.453 Y44.266
G1 F1620 X45.341 Y39.153 E12.07466
G0 F1200 X45.588 Y38.906
G1 F1620 X50.761 Y44.079 E12.39402
G0 F1200 X51.070 Y43.893
G1 F1620 X46.026 Y38.849 E12.70542
G0 F1200 X46.521 Y38.849
G1 F1620 X51.381 Y43.709 E13.00546
G0 F1200 X51.722 Y43.554
G1 F1620 X47.016 Y38.849 E13.29595
G0 F1200 X47.511 Y38.849
G1 F1620 X52.063 Y43.401 E13.57698
G0 F1200 X52.404 Y43.247
G1 F1620 X48.006 Y38.849 E13.84849
G0 F1200 X48.501 Y38.849
G1 F1620 X52.762 Y43.110 E14.11155
G0 F1200 X53.140 Y42.993
G1 F1620 X48.996 Y38.849 E14.36738
G0 F1200 X49.491 Y38.849
G1 F1620 X53.517 Y42.875 E14.61593
G0 F1200 X53.899 Y42.762
G1 F1620 X49.986 Y38.849 E14.85750
G0 F1200 X50.481 Y38.849
G1 F1620 X54.317 Y42.685 E15.09432
G0 F1200 X54.736 Y42.609
G1 F1620 X50.976 Y38.849 E15.32645
G0 F1200 X51.471 Y38.849
G1 F1620 X55.155 Y42.533 E15.55389
G0 F1200 X55.620 Y42.503
G1 F1620 X51.966 Y38.849 E15.77947
G0 F1200 X52.461 Y38.849
G1 F1620 X56.087 Y42.475 E16.00332
G0 F1200 X56.560 Y42.453
G1 F1620 X52.956 Y38.849 E16.22582
G0 F1200 X53.451 Y38.849
G1 F1620 X57.087 Y42.485 E16.45029
G0 F1200 X57.614 Y42.517
G1 F1620 X53.946 Y38.849 E16.67674
G0 F1200 X54.441 Y38.849
G1 F1620 X58.187 Y42.596 E16.90803
G0 F1200 X58.793 Y42.706
G1 F1620 X54.936 Y38.849 E17.14615
G0 F1200 X55.431 Y38.849
G1 F1620 X59.447 Y42.865 E17.39408
G0 F1200 X57.855 Y42.333
G0 X53.809 Y42.577
G0 X50.110 Y44.242
G0 X47.242 Y47.110
G0 X47.243 Y47.491
G1 F1620 X42.123 Y42.371 E17.71017
G0 F1200 X41.876 Y42.618
G1 F1620 X47.057 Y47.800 E18.03005
G0 F1200 X46.871 Y48.108
G1 F1620 X41.850 Y43.087 E18.34003
G0 F1200 X41.850 Y43.582
G1 F1620 X46.690 Y48.423 E18.63886
G0 F1200 X46.536 Y48.764
G1 F1620 X41.850 Y44.077 E18.92819
G0 F1200 X41.850 Y44.572
G1 F1620 X46.383 Y49.105 E19.20804
G0 F1200 X46.229 Y49.446
G1 F1620 X41.850 Y45.067 E19.47838
G0 F1200 X41.850 Y45.562
G1 F1620 X46.096 Y49.809 E19.74054
G0 F1200 X45.979 Y50.186
G1 F1620 X41.850 Y46.057 E19.99545
G0 F1200 X41.850 Y46.552
G1 F1620 X45.862 Y50.564 E20.24313
G0 F1200 X45.754 Y50.951
G1 F1620 X41.850 Y47.047 E20.48415
G0 F1200 X41.850 Y47.542
G1 F1620 X45.677 Y51.369 E20.72042
G0 F1200 X45.601 Y51.788
G1 F1620 X41.850 Y48.037 E20.95199
G0 F1200 X41.850 Y48.532
G1 F1620 X45.529 Y52.211 E21.17911
G0 F1200 X45.500 Y52.678
G1 F1620 X41.850 Y49.027 E21.40448
G0 F1200 X41.850 Y49.522
G1 F1620 X45.471 Y53.144 E21.62806
G0 F1200 X45.457 Y53.624
G1 F1620 X41.850 Y50.017 E21.85074
G0 F1200 X41.850 Y50.512
G1 F1620 X45.489 Y54.151 E22.07540
G0 F1200 X45.521 Y54.678
G1 F1620 X41.850 Y51.007 E22.30203
G0 F1200 X41.850 Y51.502
G1 F1620 X45.609 Y55.261 E22.53410
G0 F1200 X45.720 Y55.867
G1 F1620 X41.850 Y51.997 E22.77301
G0 F1200 X41.850 Y52.492
G1 F1620 X45.894 Y56.536 E23.02267
G0 F1200 X46.118 Y57.255
G1 F1620 X41.850 Y52.987 E23.28616
G0 F1200 X41.850 Y53.482
G1 F1620 X46.482 Y58.114 E23.57212
G0 F1200 X47.036 Y59.162
G1 F1620 X41.850 Y53.976 E23.89229
G0 F1200 X41.850 Y54.471
G1 F1620 X55.526 Y68.148 E24.73662
G0 F1200 X55.031 Y68.148
G1 F1620 X41.850 Y54.966 E25.55039
G0 F1200 X41.850 Y55.461
G1 F1620 X54.537 Y68.148 E26.33364
G0 F1200 X54.042 Y68.148
G1 F1620 X41.850 Y55.956 E27.08632
G0 F1200 X41.850 Y56.451
G1 F1620 X53.547 Y68.148 E27.80845
G0 F1200 X53.052 Y68.148
G1 F1620 X41.850 Y56.946 E28.50001
G0 F1200 X41.850 Y57.441
G1 F1620 X52.557 Y68.148 E29.16102
G0 F1200 X52.062 Y68.148
G1 F1620 X41.850 Y57.936 E29.79147
G0 F1200 X41.850 Y58.431
G1 F1620 X51.567 Y68.148 E30.39136
G0 F1200 X51.072 Y68.148
G1 F1620 X41.850 Y58.926 E30.96069
G0 F1200 X41.850 Y59.421
G1 F1620 X50.577 Y68.148 E31.49946
G0 F1200 X50.082 Y68.148
G1 F1620 X41.850 Y59.916 E32.00767
G0 F1200 X41.850 Y60.411
G1 F1620 X49.587 Y68.148 E32.48532
G0 F1200 X49.092 Y68.148
G1 F1620 X41.850 Y60.906 E32.93241
G0 F1200 X41.850 Y61.401
G1 F1620 X48.597 Y68.148 E33.34894
G0 F1200 X48.102 Y68.148
G1 F1620 X41.850 Y61.896 E33.73492
G0 F1200 X41.850 Y62.391
G1 F1620 X47.607 Y68.148 E34.09033
G0 F1200 X47.112 Y68.148
G1 F1620 X41.850 Y62.886 E34.41518
G0 F1200 X41.850 Y63.381
G1 F1620 X46.617 Y68.148 E34.70948
G0 F1200 X46.122 Y68.148
G1 F1620 X41.850 Y63.876 E34.97322
G0 F1200 X41.850 Y64.371
G1 F1620 X45.627 Y68.148 E35.20639
G0 F1200 X45.132 Y68.148
G1 F1620 X41.850 Y64.866 E35.40901
G0 F1200 X41.850 Y65.361
G1 F1620 X44.637 Y68.148 E35.58107
G0 F1200 X44.142 Y68.148
G1 F1620 X41.850 Y65.856 E35.72257
G0 F1200 X41.850 Y66.351
G1 F1620 X43.647 Y68.148 E35.83351
G0 F1200 X43.152 Y68.148
G1 F1620 X41.850 Y66.846 E35.91389
G0 F1200 X41.850 Y67.341
G1 F1620 X42.657 Y68.148 E35.96371
G0 F1200 X42.162 Y68.148
G1 F1620 X41.850 Y67.836 E35.98297
G0 F1200 X41.950 Y67.836
G0 X50.785 Y63.049
G0 X50.837 Y62.964
G1 F1620 X56.021 Y68.148 E36.30301
G0 F1200 X56.516 Y68.148
G1 F1620 X51.885 Y63.517 E36.58891
G0 F1200 X52.745 Y63.882
G1 F1620 X57.011 Y68.148 E36.85227
G0 F1200 X57.506 Y68.148
G1 F1620 X53.464 Y64.106 E37.10181
G0 F1200 X54.131 Y64.278
G1 F1620 X58.001 Y68.148 E37.34073
G0 F1200 X58.496 Y68.148
G1 F1620 X54.737 Y64.389 E37.57279
G0 F1200 X55.320 Y64.477
G1 F1620 X58.991 Y68.148 E37.79943
G0 F1200 X59.486 Y68.148
G1 F1620 X55.847 Y64.509 E38.02408
G0 F1200 X56.374 Y64.541
G1 F1620 X59.981 Y68.148 E38.24677
G0 F1200 X60.476 Y68.148
G1 F1620 X56.854 Y64.527 E38.47034
G0 F1200 X57.322 Y64.499
G1 F1620 X60.971 Y68.148 E38.69562
G0 F1200 X61.466 Y68.148
G1 F1620 X57.789 Y64.471 E38.92262
G0 F1200 X58.211 Y64.399
G1 F1620 X61.961 Y68.148 E39.15410
G0 F1200 X62.456 Y68.148
G1 F1620 X58.630 Y64.322 E39.39030
G0 F1200 X59.048 Y64.245
G1 F1620 X62.951 Y68.148 E39.63126
G0 F1200 X63.446 Y68.148
G1 F1620 X59.435 Y64.137 E39.87888
G0 F1200 X59.813 Y64.020
G1 F1620 X63.941 Y68.148 E40.13373
G0 F1200 X64.436 Y68.148
G1 F1620 X60.191 Y63.903 E40.39579
G0 F1200 X60.553 Y63.771
G1 F1620 X64.931 Y68.148 E40.66604
G0 F1200 X65.426 Y68.148
G1 F1620 X60.894 Y63.616 E40.94583
G0 F1200 X61.236 Y63.463
G1 F1620 X65.921 Y68.148 E41.23506
G0 F1200 X66.416 Y68.148
G1 F1620 X61.576 Y63.309 E41.53384
G0 F1200 X61.890 Y63.128
G1 F1620 X66.911 Y68.148 E41.84378
G0 F1200 X67.406 Y68.148
G1 F1620 X62.199 Y62.942 E42.16521
G0 F1200 X62.508 Y62.755
G1 F1620 X67.901 Y68.148 E42.49815
G0 F1200 X68.396 Y68.148
G1 F1620 X62.813 Y62.565 E42.84282
G0 F1200 X63.090 Y62.348
G1 F1620 X68.891 Y68.148 E43.20092
G0 F1200 X69.386 Y68.148
G1 F1620 X63.368 Y62.130 E43.57245
G0 F1200 X63.645 Y61.913
G1 F1620 X69.881 Y68.148 E43.95741
G0 F1200 X70.376 Y68.148
G1 F1620 X63.912 Y61.685 E44.35644
G0 F1200 X64.160 Y61.437
G1 F1620 X70.871 Y68.148 E44.77075
G0 F1200 X71.149 Y67.931
G1 F1620 X64.407 Y61.190 E45.18694
G0 F1200 X64.655 Y60.942
G1 F1620 X71.149 Y67.436 E45.58785
G0 F1200 X71.149 Y66.941
G1 F1620 X64.886 Y60.678 E45.97450
G0 F1200 X65.103 Y60.401
G1 F1620 X71.149 Y66.446 E46.34773
G0 F1200 X71.149 Y65.951
G1 F1620 X65.321 Y60.123 E46.70753
G0 F1200 X65.538 Y59.845
G1 F1620 X71.149 Y65.456 E47.05393
G0 F1200 X71.149 Y64.961
G1 F1620 X65.731 Y59.544 E47.38838
G0 F1200 X65.918 Y59.236
G1 F1620 X71.149 Y64.466 E47.71129
G0 F1200 X71.149 Y63.971
G1 F1620 X66.105 Y58.928 E48.02266
G0 F1200 X66.289 Y58.617
G1 F1620 X71.149 Y63.476 E48.32266
G0 F1200 X71.149 Y62.982
G1 F1620 X66.443 Y58.276 E48.61319
G0 F1200 X66.597 Y57.935
G1 F1620 X71.149 Y62.487 E48.89421
G0 F1200 X71.149 Y61.992
G1 F1620 X66.751 Y57.594 E49.16573
G0 F1200 X66.888 Y57.236
G1 F1620 X71.149 Y61.497 E49.42879
G0 F1200 X71.149 Y61.002
G1 F1620 X67.005 Y56.858 E49.68462
G0 F1200 X67.122 Y56.480
G1 F1620 X71.149 Y60.507 E49.93323
G0 F1200 X71.149 Y60.012
G1 F1620 X67.235 Y56.099 E50.17484
G0 F1200 X67.312 Y55.680
G1 F1620 X71.149 Y59.517 E50.41172
G0 F1200 X71.149 Y59.022
G1 F1620 X67.389 Y55.262 E50.64384
G0 F1200 X67.465 Y54.843
G1 F1620 X71.149 Y58.527 E50.87128
G0 F1200 X71.149 Y58.032
G1 F1620 X67.495 Y54.378 E51.09686
G0 F1200 X67.523 Y53.911
G1 F1620 X71.149 Y57.537 E51.32072
G0 F1200 X71.149 Y57.042
G1 F1620 X67.544 Y53.437 E51.54327
G0 F1200 X67.512 Y52.910
G1 F1620 X71.149 Y56.547 E51.76781
G0 F1200 X71.149 Y56.052
G1 F1620 X67.480 Y52.383 E51.99432
G0 F1200 X67.402 Y51.810
G1 F1620 X71.149 Y55.557 E52.22564
G0 F1200 X71.149 Y55.062
G1 F1620 X67.291 Y51.205 E52.46379
G0 F1200 X67.133 Y50.551
G1 F1620 X71.149 Y54.567 E52.71172
G0 F1200 X71.149 Y54.072
G1 F1620 X66.909 Y49.832 E52.97348
G0 F1200 X66.566 Y48.994
G1 F1620 X71.149 Y53.577 E53.25642
G0 F1200 X71.149 Y53.082
G1 F1620 X66.054 Y47.987 E53.57096
G0 F1200 X66.141 Y47.936
G0 X64.978 Y46.275
G0 X64.898 Y46.336
G1 F1620 X71.149 Y52.587 E53.95687
G0 F1200 X71.149 Y52.092
G1 F1620 X57.906 Y38.849 E54.77444
G0 F1200 X57.411 Y38.849
G1 F1620 X63.662 Y45.100 E55.16035
G0 F1200 X63.725 Y45.022
G0 X62.061 Y43.858
G0 X62.010 Y43.943
G1 F1620 X56.916 Y38.849 E55.47484
G0 F1200 X56.421 Y38.849
G1 F1620 X61.004 Y43.432 E55.75777
G0 F1200 X60.166 Y43.089
G1 F1620 X55.926 Y38.849 E56.01953
G0 F1200 X55.926 Y38.950
G0 X58.401 Y38.950
G0 X58.401 Y38.849
G1 F1620 X71.149 Y51.597 E56.80654
G0 F1200 X71.149 Y51.102
G1 F1620 X58.896 Y38.849 E57.56300
G0 F1200 X59.391 Y38.849
G1 F1620 X71.149 Y50.607 E58.28889
G0 F1200 X71.149 Y50.112
G1 F1620 X59.886 Y38.849 E58.98422
G0 F1200 X60.381 Y38.849
G1 F1620 X71.149 Y49.617 E59.64899
G0 F1200 X71.149 Y49.122
G1 F1620 X60.876 Y38.849 E60.28321
G0 F1200 X61.371 Y38.849
G1 F1620 X71.149 Y48.627 E60.88686
G0 F1200 X71.149 Y48.132
G1 F1620 X61.866 Y38.849 E61.45996
G0 F1200 X62.361 Y38.849
G1 F1620 X71.149 Y47.637 E62.00249
G0 F1200 X71.149 Y47.142
G1 F1620 X62.856 Y38.849 E62.51447
G0 F1200 X63.351 Y38.849
G1 F1620 X71.149 Y46.647 E62.99588
G0 F1200 X71.149 Y46.152
G1 F1620 X63.846 Y38.849 E63.44674
G0 F1200 X64.341 Y38.849
G1 F1620 X71.149 Y45.657 E63.86704
G0 F1200 X71.149 Y45.162
G1 F1620 X64.836 Y38.849 E64.25678
G0 F1200 X65.331 Y38.849
G1 F1620 X71.149 Y44.667 E64.61596
G0 F1200 X71.149 Y44.172
G1 F1620 X65.825 Y38.849 E64.94461
G0 F1200 X66.320 Y38.849
G1 F1620 X71.149 Y43.677 E65.24270
G0 F1200 X71.149 Y43.183
G1 F1620 X66.815 Y38.849 E65.51027
G0 F1200 X67.310 Y38.849
G1 F1620 X71.149 Y42.688 E65.74727
G0 F1200 X71.149 Y42.193
G1 F1620 X67.805 Y38.849 E65.95372
G0 F1200 X68.300 Y38.849
G1 F1620 X71.149 Y41.698 E66.12960
G0 F1200 X71.149 Y41.203
G1 F1620 X68.795 Y38.849 E66.27493
G0 F1200 X69.290 Y38.849
G1 F1620 X71.149 Y40.708 E66.38970
G0 F1200 X71.149 Y40.213
G1 F1620 X69.785 Y38.849 E66.47390
G0 F1200 X70.280 Y38.849
G1 F1620 X71.149 Y39.718 E66.52755
G0 F1200 X71.149 Y39.223
G1 F1620 X70.775 Y38.849 E66.55064
G0 F1200 X70.450 Y39.550
;LAYER:1
M106 S650
G0 X71.325 Y38.675 Z0.550
;TYPE:WALL-OUTER
G1 F1560 X71.325 Y68.325 E67.62926
G1 X41.675 Y68.325 E68.70787
G1 X41.675 Y42.573 E69.64469
G1 X45.573 Y38.675 E69.84523
G1 X71.325 Y38.675 E70.78204
G0 F1200 X71.050 Y38.860
G0 X64.835 Y46.096
G0 X64.640 Y46.289
G1 F1560 X63.711 Y45.360 E70.82983
G1 X62.678 Y44.551 E70.87756
G1 X61.553 Y43.871 E70.92539
G1 X60.356 Y43.332 E70.97314
G1 X59.102 Y42.941 E71.02093
G1 X57.810 Y42.705 E71.06870
G1 X56.500 Y42.625 E71.11645
G1 X55.190 Y42.705 E71.16419
G1 X53.898 Y42.941 E71.21197
G1 X52.644 Y43.332 E71.25976
G1 X51.447 Y43.871 E71.30751
G1 X50.322 Y44.551 E71.35533
G1 X49.289 Y45.360 E71.40306
G1 X48.360 Y46.289 E71.45086
G1 X47.551 Y47.322 E71.49859
G1 X46.871 Y48.447 E71.54641
G1 X46.332 Y49.644 E71.59417
G1 X45.941 Y50.898 E71.64195
G1 X45.705 Y52.190 E71.68973
G1 X45.625 Y53.500 E71.73747
G1 X45.705 Y54.810 E71.78522
G1 X45.941 Y56.102 E71.83300
G1 X46.332 Y57.356 E71.88078
G1 X46.871 Y58.553 E71.92854
G1 X47.551 Y59.678 E71.97636
G1 X48.360 Y60.711 E72.02409
G1 X49.289 Y61.640 E72.07188
G1 X50.322 Y62.449 E72.11961
G1 X51.447 Y63.129 E72.16743
G1 X52.644 Y63.668 E72.21519
G1 X53.898 Y64.059 E72.26297
G1 X55.190 Y64.295 E72.31075
G1 X56.500 Y64.374 E72.35850
G1 X57.810 Y64.295 E72.40624
G1 X59.102 Y64.059 E72.45402
G1 X60.356 Y63.668 E72.50180
G1 X61.553 Y63.129 E72.54956
G1 X62.678 Y62.449 E72.59738
G1 X63.711 Y61.640 E72.64511
G1 X64.640 Y60.711 E72.69290
G1 X65.449 Y59.678 E72.74063
G1 X66.129 Y58.553 E72.78845
G1 X66.668 Y57.356 E72.83621
G1 X67.059 Y56.102 E72.88399
G1 X67.295 Y54.810 E72.93177
G1 X67.374 Y53.500 E72.97952
G1 X67.295 Y52.190 E73.02726
G1 X67.059 Y50.898 E73.07504
G1 X66.668 Y49.644 E73.12282
G1 X66.129 Y48.447 E73.17058
G1 X65.449 Y47.322 E73.21840
G1 X64.640 Y46.289 E73.26613
G0 F1200 X64.848 Y46.273
;TYPE:SKIN
G1 F1920 X71.149 Y39.972 E73.59029
G0 F1200 X71.149 Y39.477
G1 F1920 X64.611 Y46.014 E73.92663
G0 F1200 X64.364 Y45.767
G1 F1920 X71.149 Y38.982 E74.27569
G0 F1200 X70.787 Y38.849
G1 F1920 X64.116 Y45.519 E74.61887
G0 F1200 X63.869 Y45.272
G1 F1920 X70.292 Y38.849 E74.94931
G0 F1200 X69.797 Y38.849
G1 F1920 X63.597 Y45.049 E75.26828
G0 F1200 X63.319 Y44.832
G1 F1920 X69.302 Y38.849 E75.57608
G0 F1200 X68.807 Y38.849
G1 F1920 X63.042 Y44.614 E75.87267
G0 F1200 X62.763 Y44.398
G1 F1920 X68.312 Y38.849 E76.15815
G0 F1200 X67.817 Y38.849
G1 F1920 X62.454 Y44.212 E76.43406
G0 F1200 X62.145 Y44.026
G1 F1920 X67.322 Y38.849 E76.70040
G0 F1200 X66.827 Y38.849
G1 F1920 X61.837 Y43.839 E76.95712
G0 F1200 X61.517 Y43.664
G1 F1920 X66.332 Y38.849 E77.20483
G0 F1200 X65.837 Y38.849
G1 F1920 X61.176 Y43.511 E77.44465
G0 F1200 X60.835 Y43.356
G1 F1920 X65.342 Y38.849 E77.67652
G0 F1200 X64.847 Y38.849
G1 F1920 X60.493 Y43.203 E77.90052
G0 F1200 X60.124 Y43.077
G1 F1920 X64.352 Y38.849 E78.11804
