;Generated with Cura_SteamEngine 15.02.1
G90
;other temp:215
;ideal temp:215
;Layer count: 14
;LAYER:0
M107
G1 F1200 E-2.40000
G1 Z0.800
G0 X43.250 Y43.054 Z0.400
;TYPE:WALL-INNER
G1 Z0.400
G1 F1200 E0.00000
G1 F240 X45.054 Y41.250 E0.63641
G1 X45.459 Y41.250 E0.73744
G1 X44.913 Y41.677 E0.91034
G1 X43.677 Y42.913 E1.34637
G1 X43.250 Y43.459 E1.51928
G1 X43.250 Y43.054 E1.62031
G0 F1200 X42.096 Y52.500
G0 X42.903 Y56.897
G0 X43.250 Y61.540
G1 F240 X43.677 Y62.086 E1.79321
G1 X44.913 Y63.322 E2.22924
G1 X45.460 Y63.750 E2.40250
G1 X43.250 Y63.750 E2.95379
G1 X43.250 Y61.540 E3.50507
G0 F1200 X51.533 Y64.542
G0 X55.993 Y64.811
G0 X58.897 Y64.096
G0 X63.539 Y63.750
G1 F240 X64.086 Y63.322 E3.67833
G1 X65.322 Y62.086 E4.11436
G1 X65.750 Y61.539 E4.28762
G1 X65.750 Y63.750 E4.83915
G1 X63.539 Y63.750 E5.39069
G0 F1200 X66.542 Y55.466
G0 X66.811 Y51.006
G0 X66.096 Y48.102
G0 X65.750 Y43.460
G1 F240 X65.322 Y42.913 E5.56394
G1 X64.086 Y41.677 E5.99997
G1 X63.540 Y41.250 E6.17288
G1 X65.750 Y41.250 E6.72417
G1 X65.750 Y43.460 E7.27545
G0 F1200 X64.197 Y43.910
G1 F240 X63.089 Y42.802 E7.66633
G1 X61.858 Y41.839 E8.05620
G1 X60.520 Y41.029 E8.44636
G1 X59.094 Y40.387 E8.83647
G1 X57.599 Y39.921 E9.22710
G1 X56.663 Y39.750 E9.46445
G1 X67.250 Y39.750 E12.10538
G1 X67.250 Y50.342 E14.74757
G1 X67.078 Y49.400 E14.98644
G1 X66.612 Y47.905 E15.37706
G1 X65.970 Y46.479 E15.76717
G1 X65.160 Y45.141 E16.15733
G1 X64.197 Y43.910 E16.54720
G0 F1200 X66.542 Y49.533
G0 X67.250 Y54.657
G1 F240 X67.250 Y65.250 E19.18964
G1 X56.657 Y65.250 E21.83207
G1 X57.599 Y65.078 E22.07094
G1 X59.094 Y64.612 E22.46157
G1 X60.520 Y63.970 E22.85167
G1 X61.858 Y63.160 E23.24183
G1 X63.089 Y62.197 E23.63170
G1 X64.197 Y61.089 E24.02258
G1 X65.160 Y59.858 E24.41245
G1 X65.970 Y58.520 E24.80262
G1 X66.612 Y57.094 E25.19272
G1 X67.078 Y55.599 E25.58335
G1 X67.250 Y54.657 E25.82221
G0 F1200 X64.706 Y59.545
G0 X61.545 Y62.706
G0 X57.466 Y64.542
G0 X54.500 Y64.902
G0 X52.342 Y65.250
G1 F240 X41.750 Y65.250 E28.46440
G1 X41.750 Y54.663 E31.10534
G1 X41.921 Y55.599 E31.34269
G1 X42.387 Y57.094 E31.73331
G1 X43.029 Y58.520 E32.12342
G1 X43.839 Y59.858 E32.51358
G1 X44.802 Y61.089 E32.90345
G1 X45.910 Y62.197 E33.29433
G1 X47.141 Y63.160 E33.68420
G1 X48.479 Y63.970 E34.07436
G1 X49.905 Y64.612 E34.46447
G1 X51.400 Y65.078 E34.85510
G1 X52.342 Y65.250 E35.09396
G0 F1200 X47.454 Y62.706
G0 X44.293 Y59.545
G0 X42.457 Y55.466
G0 X42.096 Y52.500
G0 X41.750 Y50.336
G1 F240 X41.750 Y42.432 E37.06562
G1 X44.432 Y39.750 E38.01177
G1 X52.336 Y39.750 E39.98343
G1 X51.400 Y39.921 E40.22078
G1 X49.905 Y40.387 E40.61141
G1 X48.479 Y41.029 E41.00152
G1 X47.141 Y41.839 E41.39168
G1 X45.910 Y42.802 E41.78155
G1 X44.802 Y43.910 E42.17243
G1 X43.839 Y45.141 E42.56230
G1 X43.029 Y46.479 E42.95246
G1 X42.387 Y47.905 E43.34257
G1 X41.921 Y49.400 E43.73319
G1 X41.750 Y50.336 E43.97054
G0 F1200 X42.297 Y50.966
G0 X43.132 Y51.119
;TYPE:WALL-OUTER
G1 F240 X43.048 Y52.500 E44.31567
G1 X43.132 Y53.880 E44.66055
G1 X43.380 Y55.240 E45.00540
G1 X43.792 Y56.561 E45.35058
G1 X44.360 Y57.821 E45.69535
G1 X45.076 Y59.005 E46.04050
G1 X45.927 Y60.093 E46.38506
G1 X46.906 Y61.072 E46.73043
G1 X47.994 Y61.923 E47.07500
G1 X49.178 Y62.639 E47.42015
G1 X50.438 Y63.207 E47.76492
G1 X51.759 Y63.619 E48.11010
G1 X53.120 Y63.867 E48.45519
G1 X54.500 Y63.950 E48.80006
G1 X55.879 Y63.867 E49.14467
G1 X57.240 Y63.619 E49.48977
G1 X58.561 Y63.207 E49.83494
G1 X59.821 Y62.639 E50.17971
G1 X61.005 Y61.923 E50.52487
G1 X62.093 Y61.072 E50.86943
G1 X63.072 Y60.093 E51.21480
G1 X63.923 Y59.005 E51.55936
G1 X64.639 Y57.821 E51.90452
G1 X65.207 Y56.561 E52.24929
G1 X65.619 Y55.240 E52.59447
G1 X65.867 Y53.879 E52.93956
G1 X65.950 Y52.500 E53.28417
G1 X65.867 Y51.120 E53.62904
G1 X65.619 Y49.759 E53.97413
G1 X65.207 Y48.438 E54.31931
G1 X64.639 Y47.178 E54.66408
G1 X63.923 Y45.994 E55.00923
G1 X63.072 Y44.906 E55.35380
G1 X62.093 Y43.927 E55.69917
G1 X61.005 Y43.076 E56.04373
G1 X59.821 Y42.360 E56.38888
G1 X58.561 Y41.792 E56.73365
G1 X57.240 Y41.380 E57.07883
G1 X55.880 Y41.132 E57.42368
G1 X54.500 Y41.048 E57.76856
G1 X53.119 Y41.132 E58.11369
G1 X51.759 Y41.380 E58.45854
G1 X50.438 Y41.792 E58.80372
G1 X49.178 Y42.360 E59.14848
G1 X47.994 Y43.076 E59.49364
G1 X46.906 Y43.927 E59.83820
G1 X45.927 Y44.906 E60.18357
G1 X45.076 Y45.994 E60.52813
G1 X44.360 Y47.178 E60.87329
G1 X43.792 Y48.438 E61.21806
G1 X43.380 Y49.759 E61.56324
G1 X43.132 Y51.119 E61.90808
G0 F1200 X42.297 Y50.966
G0 X41.077 Y42.185
G0 X40.250 Y41.810
G1 F240 X43.810 Y38.250 E63.16397
G1 X68.750 Y38.250 E69.38528
G1 X68.750 Y66.750 E76.49463
G1 X40.250 Y66.750 E83.60399
G1 X40.250 Y41.810 E89.82529
G0 F1200 X41.077 Y42.185
G0 X41.700 Y42.609
;LAYER:1
M106 S650
G0 X40.375 Y41.863 Z0.650
;TYPE:WALL-INNER
G1 F360 X43.863 Y38.375 E90.00474
G1 X68.625 Y38.375 E90.90554
G1 X68.625 Y66.625 E91.93323
G1 X40.375 Y66.625 E92.96091
G1 X40.375 Y41.863 E93.86171
G0 F1200 X44.972 Y45.924
G1 F360 X44.654 Y46.451 E93.88410
G1 X44.249 Y47.119 E93.91252
G1 X43.675 Y48.394 E93.96339
G1 X43.492 Y48.984 E93.98586
G1 X43.259 Y49.729 E94.01425
G1 X43.148 Y50.337 E94.03674
G1 X43.008 Y51.104 E94.06510
G1 X42.971 Y51.720 E94.08755
G1 X42.922 Y52.499 E94.11594
G1 X42.960 Y53.117 E94.13847
G1 X43.008 Y53.895 E94.16682
G1 X43.118 Y54.502 E94.18927
G1 X43.259 Y55.270 E94.21767
G1 X43.443 Y55.861 E94.24019
G1 X43.676 Y56.605 E94.26855
G1 X44.249 Y57.879 E94.31937
G1 X44.568 Y58.409 E94.34187
G1 X44.973 Y59.076 E94.37026
G1 X45.834 Y60.176 E94.42108
G1 X46.823 Y61.165 E94.47196
G1 X47.924 Y62.027 E94.52282
G1 X48.451 Y62.345 E94.54522
G1 X49.119 Y62.750 E94.57363
G1 X50.394 Y63.324 E94.62450
G1 X50.984 Y63.507 E94.64697
G1 X51.729 Y63.740 E94.67537
G1 X52.337 Y63.851 E94.69785
G1 X53.104 Y63.991 E94.72621
G1 X54.500 Y64.076 E94.77709
G1 X55.894 Y63.991 E94.82790
G1 X56.502 Y63.881 E94.85038
G1 X57.270 Y63.740 E94.87878
G1 X57.861 Y63.556 E94.90130
G1 X58.605 Y63.323 E94.92966
G1 X59.879 Y62.750 E94.98048
G1 X60.409 Y62.431 E95.00298
G1 X61.076 Y62.026 E95.03137
G1 X62.176 Y61.165 E95.08218
G1 X63.165 Y60.176 E95.13307
G1 X64.027 Y59.075 E95.18393
G1 X64.345 Y58.548 E95.20632
G1 X64.750 Y57.880 E95.23474
G1 X65.324 Y56.605 E95.28561
G1 X65.507 Y56.015 E95.30808
G1 X65.740 Y55.270 E95.33648
G1 X65.851 Y54.662 E95.35896
G1 X65.991 Y53.895 E95.38732
G1 X66.076 Y52.500 E95.43817
G1 X65.991 Y51.105 E95.48901
G1 X65.881 Y50.497 E95.51148
G1 X65.740 Y49.729 E95.53989
G1 X65.556 Y49.138 E95.56241
G1 X65.323 Y48.394 E95.59077
G1 X64.750 Y47.120 E95.64159
G1 X64.431 Y46.590 E95.66409
G1 X64.026 Y45.923 E95.69248
G1 X63.165 Y44.823 E95.74329
G1 X62.176 Y43.834 E95.79417
G1 X61.075 Y42.972 E95.84504
G1 X60.546 Y42.653 E95.86751
G1 X59.880 Y42.249 E95.89585
G1 X58.605 Y41.675 E95.94672
G1 X58.015 Y41.492 E95.96919
G1 X57.270 Y41.259 E95.99759
G1 X56.662 Y41.148 E96.02007
G1 X55.895 Y41.008 E96.04843
G1 X55.279 Y40.971 E96.07088
G1 X54.501 Y40.922 E96.09924
G1 X53.883 Y40.960 E96.12176
G1 X53.104 Y41.008 E96.15016
G1 X52.497 Y41.118 E96.17260
G1 X51.729 Y41.259 E96.20100
G1 X51.138 Y41.443 E96.22352
G1 X50.394 Y41.676 E96.25188
G1 X49.120 Y42.249 E96.30270
G1 X48.590 Y42.568 E96.32520
G1 X47.923 Y42.973 E96.35359
G1 X46.823 Y43.834 E96.40441
G1 X45.834 Y44.823 E96.45529
G1 X44.972 Y45.924 E96.50616
G0 F1200 X44.953 Y46.633
G1 F360 X44.559 Y47.282 E96.53378
G1 X44.003 Y48.519 E96.58311
G1 X43.599 Y49.814 E96.63246
G1 X43.356 Y51.147 E96.68175
G1 X43.273 Y52.500 E96.73107
G1 X43.356 Y53.852 E96.78034
G1 X43.599 Y55.185 E96.82963
G1 X44.003 Y56.480 E96.87898
G1 X44.559 Y57.716 E96.92828
G1 X44.868 Y58.228 E96.95004
G1 X45.261 Y58.877 E96.97764
G1 X46.096 Y59.944 E97.02693
G1 X47.055 Y60.903 E97.07627
G1 X48.123 Y61.738 E97.12558
G1 X48.634 Y62.047 E97.14731
G1 X49.282 Y62.440 E97.17488
G1 X50.519 Y62.996 E97.22421
G1 X51.814 Y63.400 E97.27356
G1 X53.147 Y63.643 E97.32285
G1 X54.500 Y63.725 E97.37216
G1 X55.852 Y63.643 E97.42144
G1 X57.185 Y63.400 E97.47073
G1 X58.480 Y62.996 E97.52008
G1 X59.716 Y62.440 E97.56938
G1 X60.228 Y62.131 E97.59114
G1 X60.877 Y61.738 E97.61874
G1 X61.944 Y60.903 E97.66803
G1 X62.903 Y59.944 E97.71736
G1 X63.738 Y58.876 E97.76668
G1 X64.046 Y58.366 E97.78835
G1 X64.440 Y57.717 E97.81597
G1 X64.996 Y56.480 E97.86531
G1 X65.400 Y55.185 E97.91466
G1 X65.643 Y53.852 E97.96395
G1 X65.725 Y52.500 E98.01322
G1 X65.643 Y51.147 E98.06253
G1 X65.400 Y49.814 E98.11183
G1 X64.996 Y48.519 E98.16117
G1 X64.440 Y47.283 E98.21048
G1 X64.131 Y46.771 E98.23223
G1 X63.738 Y46.122 E98.25983
G1 X62.903 Y45.055 E98.30912
G1 X61.944 Y44.096 E98.35846
G1 X60.876 Y43.261 E98.40778
G1 X60.365 Y42.952 E98.42950
G1 X59.717 Y42.559 E98.45707
G1 X58.480 Y42.003 E98.50641
G1 X57.185 Y41.599 E98.55576
G1 X55.852 Y41.356 E98.60505
G1 X54.500 Y41.273 E98.65432
G1 X53.147 Y41.356 E98.70364
G1 X51.814 Y41.599 E98.75293
G1 X50.519 Y42.003 E98.80228
G1 X49.283 Y42.559 E98.85158
G1 X48.771 Y42.868 E98.87333
G1 X48.122 Y43.261 E98.90094
G1 X47.055 Y44.096 E98.95022
G1 X46.096 Y45.055 E98.99956
G1 X45.261 Y46.123 E99.04888
G1 X44.953 Y46.633 E99.07055
G0 F1200 X40.025 Y41.717
G1 F360 X43.717 Y38.025 E99.26049
G1 X68.975 Y38.025 E100.17933
G1 X68.975 Y66.975 E101.23249
G1 X40.025 Y66.975 E102.28564
G1 X40.025 Y41.717 E103.20448
G0 F1200 X39.675 Y41.573
;TYPE:WALL-OUTER
G1 F360 X43.573 Y37.675 E103.40502
G1 X69.325 Y37.675 E104.34183
G1 X69.325 Y67.325 E105.42045
G1 X39.675 Y67.325 E106.49906
G1 X39.675 Y41.573 E107.43588
G0 F1200 X39.950 Y41.654
G0 X45.334 Y46.153
G0 X45.550 Y46.322
G1 F360 X44.870 Y47.446 E107.48367
G1 X44.331 Y48.643 E107.53142
G1 X43.940 Y49.897 E107.57921
G1 X43.704 Y51.189 E107.62698
G1 X43.624 Y52.500 E107.67477
G1 X43.704 Y53.810 E107.72251
G1 X43.940 Y55.102 E107.77029
G1 X44.331 Y56.356 E107.81807
G1 X44.870 Y57.553 E107.86583
G1 X45.550 Y58.677 E107.91362
G1 X46.359 Y59.711 E107.96138
G1 X47.288 Y60.640 E108.00917
G1 X48.322 Y61.449 E108.05693
G1 X49.446 Y62.129 E108.10472
G1 X50.643 Y62.668 E108.15248
G1 X51.897 Y63.059 E108.20026
G1 X53.189 Y63.295 E108.24804
G1 X54.500 Y63.374 E108.29582
G1 X55.810 Y63.295 E108.34356
G1 X57.102 Y63.059 E108.39134
G1 X58.356 Y62.668 E108.43912
G1 X59.553 Y62.129 E108.48688
G1 X60.677 Y61.449 E108.53467
G1 X61.711 Y60.640 E108.58243
G1 X62.640 Y59.711 E108.63022
G1 X63.449 Y58.677 E108.67798
G1 X64.129 Y57.553 E108.72577
G1 X64.668 Y56.356 E108.77353
G1 X65.059 Y55.102 E108.82131
G1 X65.295 Y53.810 E108.86909
G1 X65.374 Y52.500 E108.91683
G1 X65.295 Y51.189 E108.96461
G1 X65.059 Y49.897 E109.01239
G1 X64.668 Y48.643 E109.06018
G1 X64.129 Y47.446 E109.10793
G1 X63.449 Y46.322 E109.15572
G1 X62.640 Y45.288 E109.20348
G1 X61.711 Y44.359 E109.25127
G1 X60.677 Y43.550 E109.29903
G1 X59.553 Y42.870 E109.34682
G1 X58.356 Y42.331 E109.39458
G1 X57.102 Y41.940 E109.44236
G1 X55.810 Y41.704 E109.49014
G1 X54.500 Y41.624 E109.53789
G1 X53.189 Y41.704 E109.58567
G1 X51.897 Y41.940 E109.63345
G1 X50.643 Y42.331 E109.68123
G1 X49.446 Y42.870 E109.72899
G1 X48.322 Y43.550 E109.77678
G1 X47.288 Y44.359 E109.82454
G1 X46.359 Y45.288 E109.87233
G1 X45.550 Y46.322 E109.92009
G0 F1200 X44.557 Y46.270
;TYPE:SKIN
G1 F900 X40.549 Y50.278 E110.12629
G0 F1200 X40.549 Y50.773
G1 F900 X43.937 Y47.385 E110.30059
G0 F1200 X43.530 Y48.287
G1 F900 X40.549 Y51.268 E110.45395
G0 F1200 X40.549 Y51.763
G1 F900 X43.297 Y49.015 E110.59533
G0 F1200 X43.081 Y49.726
G1 F900 X40.549 Y52.258 E110.72559
G0 F1200 X40.549 Y52.752
G1 F900 X42.970 Y50.331 E110.85014
G0 F1200 X42.860 Y50.937
G1 F900 X40.549 Y53.247 E110.96901
G0 F1200 X40.549 Y53.742
G1 F900 X42.809 Y51.483 E111.08525
G0 F1200 X42.777 Y52.010
G1 F900 X40.549 Y54.237 E111.19985
G0 F1200 X40.549 Y54.732
G1 F900 X42.748 Y52.533 E111.31298
G0 F1200 X42.777 Y52.999
G1 F900 X40.549 Y55.227 E111.42761
G0 F1200 X40.549 Y55.722
G1 F900 X42.806 Y53.466 E111.54370
G0 F1200 X42.836 Y53.931
G1 F900 X40.549 Y56.217 E111.66133
G0 F1200 X40.549 Y56.712
G1 F900 X42.912 Y54.349 E111.78290
G0 F1200 X42.989 Y54.768
G1 F900 X40.549 Y57.207 E111.90840
G0 F1200 X40.549 Y57.702
G1 F900 X43.066 Y55.186 E112.03787
G0 F1200 X43.171 Y55.575
G1 F900 X40.549 Y58.197 E112.17276
G0 F1200 X40.549 Y58.692
G1 F900 X43.289 Y55.952 E112.31372
G0 F1200 X43.407 Y56.330
G1 F900 X40.549 Y59.187 E112.46073
G0 F1200 X40.549 Y59.682
G1 F900 X43.528 Y56.703 E112.61399
G0 F1200 X43.682 Y57.045
G1 F900 X40.549 Y60.177 E112.77515
G0 F1200 X40.549 Y60.672
G1 F900 X43.836 Y57.385 E112.94425
G0 F1200 X43.989 Y57.727
G1 F900 X40.549 Y61.167 E113.12123
G0 F1200 X40.549 Y61.662
G1 F900 X44.153 Y58.058 E113.30664
G0 F1200 X44.340 Y58.366
G1 F900 X40.549 Y62.157 E113.50168
G0 F1200 X40.549 Y62.652
G1 F900 X44.526 Y58.675 E113.70628
G0 F1200 X44.713 Y58.984
G1 F900 X40.549 Y63.147 E113.92048
G0 F1200 X40.549 Y63.642
G1 F900 X44.911 Y59.281 E114.14486
G0 F1200 X45.128 Y59.558
G1 F900 X40.549 Y64.137 E114.38044
G0 F1200 X40.549 Y64.632
G1 F900 X45.346 Y59.836 E114.62720
G0 F1200 X40.549 Y49.783
G1 F900 X51.782 Y38.550 E115.20510
G0 F1200 X52.277 Y38.550
G1 F900 X48.267 Y42.560 E115.41140
G0 F1200 X49.384 Y41.938
G1 F900 X52.772 Y38.550 E115.58570
G0 F1200 X53.267 Y38.550
G1 F900 X50.284 Y41.533 E115.73917
G0 F1200 X51.013 Y41.299
G1 F900 X53.762 Y38.550 E115.88060
G0 F1200 X54.257 Y38.550
G1 F900 X51.725 Y41.082 E116.01086
G0 F1200 X52.330 Y40.971
G1 F900 X54.752 Y38.550 E116.13544
G0 F1200 X55.247 Y38.550
G1 F900 X52.936 Y40.860 E116.25430
G0 F1200 X53.482 Y40.809
G1 F900 X55.742 Y38.550 E116.37055
G0 F1200 X56.237 Y38.550
G1 F900 X54.010 Y40.777 E116.48512
G0 F1200 X54.533 Y40.749
G1 F900 X56.732 Y38.550 E116.59825
G0 F1200 X57.227 Y38.550
G1 F900 X54.999 Y40.778 E116.71287
G0 F1200 X55.466 Y40.806
G1 F900 X57.722 Y38.550 E116.82894
G0 F1200 X58.217 Y38.550
G1 F900 X55.930 Y40.837 E116.94660
G0 F1200 X56.348 Y40.913
G1 F900 X58.712 Y38.550 E117.06819
G0 F1200 X59.207 Y38.550
G1 F900 X56.767 Y40.990 E117.19372
G0 F1200 X57.185 Y41.066
G1 F900 X59.702 Y38.550 E117.32319
G0 F1200 X51.287 Y38.550
G1 F900 X40.549 Y49.288 E117.87562
G0 F1200 X40.549 Y48.793
G1 F900 X50.792 Y38.550 E118.40259
G0 F1200 X50.297 Y38.550
G1 F900 X40.549 Y48.298 E118.90409
G0 F1200 X40.549 Y47.803
G1 F900 X49.802 Y38.550 E119.38013
G0 F1200 X49.307 Y38.550
G1 F900 X40.549 Y47.308 E119.83070
G0 F1200 X40.549 Y46.813
G1 F900 X48.812 Y38.550 E120.25580
G0 F1200 X48.318 Y38.550
G1 F900 X40.549 Y46.318 E120.65546
G0 F1200 X40.549 Y45.823
G1 F900 X47.823 Y38.550 E121.02966
G0 F1200 X47.328 Y38.550
G1 F900 X40.549 Y45.328 E121.37839
G0 F1200 X40.549 Y44.833
G1 F900 X46.833 Y38.550 E121.70166
G0 F1200 X46.338 Y38.550
G1 F900 X40.549 Y44.338 E121.99945
G0 F1200 X40.549 Y43.843
G1 F900 X45.843 Y38.550 E122.27179
G0 F1200 X45.348 Y38.550
G1 F900 X40.549 Y43.348 E122.51865
G0 F1200 X40.549 Y42.853
G1 F900 X44.853 Y38.550 E122.74005
G0 F1200 X44.358 Y38.550
G1 F900 X40.549 Y42.358 E122.93599
G0 F1200 X57.575 Y41.171
G1 F900 X60.197 Y38.550 E123.07086
G0 F1200 X60.692 Y38.550
G1 F900 X57.953 Y41.289 E123.21177
G0 F1200 X58.330 Y41.406
G1 F900 X61.187 Y38.550 E123.35873
G0 F1200 X61.682 Y38.550
G1 F900 X58.704 Y41.528 E123.51193
G0 F1200 X59.045 Y41.681
G1 F900 X62.177 Y38.550 E123.67304
G0 F1200 X62.672 Y38.550
G1 F900 X59.386 Y41.835 E123.84207
G0 F1200 X59.727 Y41.990
G1 F900 X63.167 Y38.550 E124.01904
G0 F1200 X63.662 Y38.550
G1 F900 X60.058 Y42.154 E124.20446
G0 F1200 X60.366 Y42.340
G1 F900 X64.157 Y38.550 E124.39947
G0 F1200 X64.652 Y38.550
G1 F900 X60.674 Y42.527 E124.60410
G0 F1200 X60.983 Y42.713
G1 F900 X65.147 Y38.550 E124.81829
G0 F1200 X65.642 Y38.550
